public/Headphones.svg

<svg width="110" height="112" viewBox="0 0 110 112" fill="none" xmlns="http://www.w3.org/2000/svg">
<path d="M91.0491 37.3335H95.8724C98.2815 37.3335 100.592 38.3168 102.295 40.0672C103.999 41.8175 104.956 44.1915 104.956 46.6668V65.3335C104.956 67.8089 103.999 70.1828 102.295 71.9332C100.592 73.6835 98.2815 74.6668 95.8724 74.6668H91.0491C89.9429 83.6893 85.6697 91.9867 79.0318 98.0013C72.3938 104.016 63.8476 107.334 54.9974 107.334V98.0002C62.2245 98.0002 69.1557 95.0502 74.2661 89.7992C79.3764 84.5482 82.2474 77.4262 82.2474 70.0002V42.0002C82.2474 34.5741 79.3764 27.4522 74.2661 22.2012C69.1557 16.9502 62.2245 14.0002 54.9974 14.0002C47.7702 14.0002 40.8391 16.9502 35.7287 22.2012C30.6184 27.4522 27.7474 34.5741 27.7474 42.0002V74.6668H14.1224C11.7133 74.6668 9.40297 73.6835 7.69951 71.9332C5.99605 70.1828 5.03906 67.8089 5.03906 65.3335V46.6668C5.03906 44.1915 5.99605 41.8175 7.69951 40.0672C9.40297 38.3168 11.7133 37.3335 14.1224 37.3335H18.9456C20.054 28.3124 24.3279 20.0168 30.9655 14.0033C37.6031 7.98989 46.1482 4.67187 54.9974 4.67188C63.8466 4.67187 72.3917 7.98989 79.0293 14.0033C85.6669 20.0168 89.9408 28.3124 91.0491 37.3335ZM14.1224 46.6668V65.3335H18.6641V46.6668H14.1224ZM91.3307 46.6668V65.3335H95.8724V46.6668H91.3307ZM35.7407 73.6635L40.5549 65.7488C44.8832 68.5355 49.8896 70.0092 54.9974 70.0002C60.1052 70.0092 65.1115 68.5355 69.4399 65.7488L74.2541 73.6635C68.4831 77.3796 61.8079 79.345 54.9974 79.3335C48.1869 79.345 41.5117 77.3796 35.7407 73.6635Z" fill="#265597"/>
</svg>

<svg xmlns="http://www.w3.org/2000/svg" width="110" height="112" fill="none" viewBox="0 0 110 112"><path fill="#265597" d="M91.05 37.334h4.822c2.41 0 4.72.983 6.423 2.733a9.46 9.46 0 0 1 2.661 6.6v18.667c0 2.475-.957 4.849-2.661 6.6a8.96 8.96 0 0 1-6.423 2.733H91.05C89.943 83.689 85.67 91.987 79.032 98c-6.638 6.015-15.184 9.333-24.035 9.333V98c7.227 0 14.159-2.95 19.27-8.2 5.11-5.252 7.98-12.374 7.98-19.8V42c0-7.426-2.87-14.548-7.98-19.799s-12.042-8.2-19.27-8.2-14.158 2.95-19.268 8.2c-5.11 5.251-7.982 12.373-7.982 19.8v32.666H14.122c-2.409 0-4.719-.984-6.422-2.734a9.47 9.47 0 0 1-2.66-6.6V46.668c0-2.476.956-4.85 2.66-6.6a8.96 8.96 0 0 1 6.422-2.733h4.824c1.108-9.022 5.382-17.317 12.02-23.33 6.637-6.014 15.182-9.332 24.031-9.332 8.85 0 17.395 3.318 24.032 9.331 6.638 6.014 10.912 14.31 12.02 23.33m-76.928 9.333v18.667h4.542V46.667zm77.209 0v18.667h4.541V46.667zM35.74 73.663l4.814-7.914A26.6 26.6 0 0 0 54.997 70 26.6 26.6 0 0 0 69.44 65.75l4.814 7.915a35.44 35.44 0 0 1-19.257 5.67 35.44 35.44 0 0 1-19.256-5.67"/></svg>
